X:26
T:The Finucane Twins
R:jig
C:Paul S. Cranford
O:Cape Breton Island
S:http://www.cranfordpub.com
D:currently unrecorded
B:currently unpublished in book form
Z:psc
H:                                                        copyrights Cranford Publications, SOCAN
L:1/8
Q:300
M:6/8
K:Bmin
A|BFB BdB|cAc cec|dcB dfd|eaf ecA|
BFB BdB|cBA cec|daf ecA|cBB B2:|
|:f|ade faf|baf ecA|ade faf|[1baa a2 f|
aba fdf|baf ecA|Baf ecA|cBB B2:|
[2baa a2 b|afe dfd|ecB AcA|Baf ecA|cBB B2|]
